X:1
T:Országúton hosszú a jegenyesor
C:Hungarian song
Z:Public Domain
L:1/8
M:2/4
K:Eb
V:1 treble nm="Voice"
%%MIDI program 52
V:1
"Cm" C2 E2 | G2 c2 | e2 c=B |"Fm" cA G^F |"Cm" G2 DE |"G" GF ED | E C3 |"Cm" C4 :| e2 e2 | f e3 | %10
w: Or- szág-|ú- ton|hosz- szú a|je- ge- nye- sor,|hosz- szú a|je- ge- nye- sor|ha- zá-|ig,|Nin- csen|pén- zem|
w: Csiz- mám|sar- ka|száz- szor is|le- ko- pik, hej,|száz- szor is|le- ko- pik, hej,|o- dá-|ig,|||
w: Fá- radt|lá- bam|es- té- re|ha- za- ta- lál,|nem mesz- *|sze van i- de|Ko- lozs-|vár.|||
"G" d2 c2 |"Cm" G4 | B=A B=B |"Fm" c A3 |"Cm" G2 E2 |"G" D4 |] %16
w: vo- nat-|ra,|sem sze- re- tőm,|ha- za|ho- zat-|na,|
w: ||||||
w: ||||||

